Home-compleks/dist/img/building.svg

<?xml version="1.0" encoding="UTF-8"?>
<svg viewBox="0 0 80 80" xmlns="http://www.w3.org/2000/svg">
<path d="m57.333 74.667h-37.333c-0.7359 0-1.3333 0.5974-1.3333 1.3333v2.6667c0 0.736 0.5974 1.3333 1.3333 1.3333s1.3333-0.5973 1.3333-1.3333v-1.3333h36c0.7359 0 1.3333-0.5973 1.3333-1.3332 0-0.736-0.5972-1.3335-1.3333-1.3335z" fill="#D4C17F"/>
<path d="m29.333 33.333c0 0.7359 0.5973 1.3333 1.3333 1.3333h5.3334c0.7359 0 1.3333-0.5974 1.3333-1.3333v-8c0-0.736-0.5974-1.3333-1.3333-1.3333h-5.3333c-0.7359 0-1.3333 0.5973-1.3333 1.3333v8h-1e-4zm2.6667-6.6666h2.6667v5.3333h-2.6667v-5.3333z" fill="#D4C17F"/>
<path d="m17.333 16h-16c-0.73594 0-1.3333 0.5973-1.3333 1.3333v26.667c0 0.7359 0.59734 1.3333 1.3333 1.3333 0.73594 0 1.3333-0.5974 1.3333-1.3333v-25.333h14.667c0.7359 0 1.3333-0.5973 1.3333-1.3333 0-0.7359-0.5972-1.3334-1.3333-1.3334z" fill="#D4C17F"/>
<path d="m64 65.333c0 0.7359 0.5973 1.3333 1.3333 1.3333h5.3333c0.7359 0 1.3332-0.5974 1.3332-1.3333v-8c0-0.736-0.5973-1.3333-1.3332-1.3333h-5.3333c-0.736 0-1.3333 0.5973-1.3333 1.3333v8zm2.6667-6.6666h2.6667v5.3333h-2.6667v-5.3333z" fill="#D4C17F"/>
<path d="m6.6667 48c-6.5908 0-6.6667 17.16-6.6667 17.333 0 3.22 2.2947 5.912 5.3333 6.532v6.8014c0 0.736 0.59734 1.3333 1.3333 1.3333s1.3333-0.5973 1.3333-1.3333v-6.8014c3.0386-0.62 5.3333-3.312 5.3333-6.532 2e-4 -0.1733-0.0758-17.333-6.6664-17.333zm0 21.333c-2.2053 0-4-1.7947-4-4 0-6.6427 1.7841-14.667 4-14.667s4 8.024 4 14.667c0 2.2053-1.7947 4-4 4z" fill="#D4C17F"/>
<path d="m14.667 40h-5.3334c-0.73594 0-1.3333 0.5973-1.3333 1.3333v2.6667c0 0.7359 0.59734 1.3333 1.3333 1.3333 0.73592 0 1.3333-0.5974 1.3333-1.3333v-1.3333h2.6667v6.6667c0 0.736 0.5973 1.3333 1.3333 1.3333 0.7359 0 1.3332-0.5973 1.3332-1.3333v-8c2e-4 -0.7361-0.5971-1.3334-1.3331-1.3334z" fill="#D4C17F"/>
<path d="m65.333 34.667h5.3333c0.7359 0 1.3332-0.5973 1.3332-1.3333v-8c0-0.7359-0.5973-1.3332-1.3332-1.3332h-5.3333c-0.736 0-1.3333 0.5973-1.3333 1.3332v8c0 0.736 0.5973 1.3333 1.3333 1.3333zm1.3334-8h2.6667v5.3333h-2.6667v-5.3333z" fill="#D4C17F"/>
<path d="m14.667 24h-5.3334c-0.73594 0-1.3333 0.5973-1.3333 1.3333v8c0 0.7359 0.59734 1.3333 1.3333 1.3333h5.3333c0.7359 0 1.3332-0.5974 1.3332-1.3333v-8c2e-4 -0.736-0.5971-1.3333-1.3331-1.3333zm-1.3334 8h-2.6666v-5.3333h2.6667v5.3333h-1e-4z" fill="#D4C17F"/>
<path d="m42.667 33.333c0 0.7359 0.5974 1.3333 1.3333 1.3333h5.3333c0.7359 0 1.3333-0.5974 1.3333-1.3333v-8c0-0.736-0.5974-1.3333-1.3333-1.3333h-5.3333c-0.7359 0-1.3333 0.5973-1.3333 1.3333v8zm2.6666-6.6666h2.6667v5.3333h-2.6667v-5.3333z" fill="#D4C17F"/>
<path d="m78.667 16h-16c-0.7359 0-1.3333 0.5973-1.3333 1.3333 0 0.7359 0.5974 1.3333 1.3333 1.3333h14.667v53.579c-0.4186-0.1494-0.8626-0.2453-1.3332-0.2453-0.2307 0-0.46 0.02-0.6854 0.06-0.92-1.6573-2.6706-2.7267-4.6479-2.7267-1.9774 0-3.728 1.0694-4.648 2.7267-0.2253-0.04-0.4547-0.06-0.6853-0.06-2.2053 0-4 1.7947-4 4s1.7947 4 4 4h10.666c2.2053 0 4-1.7947 4-4v-58.667c0-0.736-0.5973-1.3333-1.3333-1.3333zm-2.6667 61.333h-10.667c-0.7347 0-1.3333-0.5986-1.3333-1.3333s0.5986-1.3333 1.3333-1.3333c0.2559 0 0.4986 0.0733 0.7226 0.2174 0.3653 0.2346 0.8214 0.2773 1.2241 0.1146 0.4027-0.1626 0.7-0.512 0.7973-0.9346 0.2814-1.2147 1.3468-2.0641 2.5894-2.0641 1.2427 0 2.308 0.8494 2.5894 2.0641 0.0973 0.4226 0.3947 0.772 0.7973 0.9346 0.4014 0.1627 0.8586 0.12 1.2241-0.1146 0.868-0.56 2.0559 0.1253 2.0559 1.1159-1e-4 0.7347-0.5987 1.3333-1.3334 1.3333z" fill="#D4C17F"/>
<path d="m44 18.667h5.3333c0.7359 0 1.3333-0.5973 1.3333-1.3333v-8c0-0.73593-0.5974-1.3333-1.3333-1.3333h-5.3333c-0.7359 0-1.3333 0.59735-1.3333 1.3333v8c0 0.736 0.5974 1.3333 1.3333 1.3333zm1.3333-8h2.6667v5.3333h-2.6667v-5.3333z" fill="#D4C17F"/>
<path d="m42.667 49.333c0 0.7359 0.5974 1.3333 1.3333 1.3333h5.3333c0.7359 0 1.3333-0.5974 1.3333-1.3333v-8c0-0.736-0.5974-1.3333-1.3333-1.3333h-5.3333c-0.7359 0-1.3333 0.5973-1.3333 1.3333v8zm2.6666-6.6666h2.6667v5.3333h-2.6667v-5.3333z" fill="#D4C17F"/>
<path d="m30.667 18.667h5.3333c0.7359 0 1.3333-0.5973 1.3333-1.3333v-8c0-0.73593-0.5974-1.3333-1.3333-1.3333h-5.3333c-0.7359 0-1.3333 0.59735-1.3333 1.3333v8c-1e-4 0.736 0.5972 1.3333 1.3333 1.3333zm1.3333-8h2.6667v5.3333h-2.6667v-5.3333z" fill="#D4C17F"/>
<path d="m39.053 64.387c-0.24 0.2533-0.3867 0.6-0.3867 0.9467 0 0.3468 0.1467 0.6933 0.3867 0.9468 0.2533 0.24 0.6 0.3867 0.9467 0.3867s0.6933-0.1467 0.9467-0.3867c0.24-0.2533 0.3867-0.6 0.3867-0.9468 0-0.3467-0.1467-0.6932-0.3867-0.9467-0.5067-0.4934-1.3867-0.4934-1.8934 0z" fill="#D4C17F"/>
<path d="m29.333 49.333c0 0.7359 0.5973 1.3333 1.3333 1.3333h5.3334c0.7359 0 1.3333-0.5974 1.3333-1.3333v-8c0-0.736-0.5974-1.3333-1.3333-1.3333h-5.3333c-0.7359 0-1.3333 0.5973-1.3333 1.3333v8h-1e-4zm2.6667-6.6666h2.6667v5.3333h-2.6667v-5.3333z" fill="#D4C17F"/>
<path d="m26.667 57.333c0 0.7359 0.5974 1.3333 1.3333 1.3333h4v12c0 0.7359 0.5973 1.3332 1.3333 1.3332 0.7359 0 1.3333-0.5973 1.3333-1.3332v-12h10.667v12c0 0.7359 0.5973 1.3332 1.3333 1.3332 0.7359 0 1.3332-0.5973 1.3332-1.3332v-12h4c0.736 0 1.3333-0.5974 1.3333-1.3333 0-0.736-0.5973-1.3333-1.3333-1.3333h-24c-0.7359 0-1.3333 0.5973-1.3333 1.3333z" fill="#D4C17F"/>
<path d="m64 49.333c0 0.7359 0.5973 1.3333 1.3333 1.3333h5.3333c0.7359 0 1.3332-0.5974 1.3332-1.3333v-8c0-0.736-0.5973-1.3333-1.3332-1.3333h-5.3333c-0.736 0-1.3333 0.5973-1.3333 1.3333v8zm2.6667-6.6666h2.6667v5.3333h-2.6667v-5.3333z" fill="#D4C17F"/>
<path d="m57.333 0h-34.667c-0.7359 0-1.3333 0.59734-1.3333 1.3333v69.333c0 0.7359 0.5974 1.3332 1.3333 1.3332 0.736 0 1.3333-0.5973 1.3333-1.3332v-68h32v68c0 0.7359 0.5973 1.3332 1.3333 1.3332 0.7359 0 1.3333-0.5973 1.3333-1.3332v-69.333c1e-4 -0.73594-0.5972-1.3333-1.3333-1.3333z" fill="#D4C17F"/>
</svg>

<svg width="80" height="80" viewBox="0 0 80 80" fill="none" xmlns="http://www.w3.org/2000/svg">
<path d="M57.3333 74.6667H20C19.2641 74.6667 18.6667 75.2641 18.6667 76V78.6667C18.6667 79.4027 19.2641 80 20 80C20.7359 80 21.3333 79.4027 21.3333 78.6667V77.3334H57.3333C58.0692 77.3334 58.6666 76.7361 58.6666 76.0002C58.6666 75.2642 58.0694 74.6667 57.3333 74.6667Z" fill="#D4C17F"/>
<path d="M29.3333 33.3333C29.3333 34.0692 29.9306 34.6666 30.6666 34.6666H36C36.7359 34.6666 37.3333 34.0692 37.3333 33.3333V25.3333C37.3333 24.5973 36.7359 24 36 24H30.6667C29.9308 24 29.3334 24.5973 29.3334 25.3333V33.3333H29.3333ZM32 26.6667H34.6667V32H32V26.6667Z" fill="#D4C17F"/>
<path d="M17.3333 16H1.33328C0.597344 16 0 16.5973 0 17.3333V44C0 44.7359 0.597344 45.3333 1.33328 45.3333C2.06922 45.3333 2.66656 44.7359 2.66656 44V18.6667H17.3333C18.0692 18.6667 18.6666 18.0694 18.6666 17.3334C18.6666 16.5975 18.0694 16 17.3333 16Z" fill="#D4C17F"/>
<path d="M64 65.3333C64 66.0692 64.5973 66.6666 65.3333 66.6666H70.6666C71.4025 66.6666 71.9998 66.0692 71.9998 65.3333V57.3333C71.9998 56.5973 71.4025 56 70.6666 56H65.3333C64.5973 56 64 56.5973 64 57.3333V65.3333ZM66.6667 58.6667H69.3334V64H66.6667V58.6667Z" fill="#D4C17F"/>
<path d="M6.66672 48C0.0759375 48 0 65.16 0 65.3333C0 68.5533 2.29469 71.2453 5.33328 71.8653V78.6667C5.33328 79.4027 5.93062 80 6.66656 80C7.4025 80 7.99984 79.4027 7.99984 78.6667V71.8653C11.0384 71.2453 13.3331 68.5533 13.3331 65.3333C13.3333 65.16 13.2573 48 6.66672 48ZM6.66672 69.3333C4.46141 69.3333 2.66672 67.5386 2.66672 65.3333C2.66672 58.6906 4.45078 50.6666 6.66672 50.6666C8.88266 50.6666 10.6667 58.6906 10.6667 65.3333C10.6667 67.5386 8.87203 69.3333 6.66672 69.3333Z" fill="#D4C17F"/>
<path d="M14.6667 40H9.33328C8.59734 40 8 40.5973 8 41.3333V44C8 44.7359 8.59734 45.3333 9.33328 45.3333C10.0692 45.3333 10.6666 44.7359 10.6666 44V42.6667H13.3333V49.3334C13.3333 50.0694 13.9306 50.6667 14.6666 50.6667C15.4025 50.6667 15.9998 50.0694 15.9998 49.3334V41.3334C16 40.5973 15.4027 40 14.6667 40Z" fill="#D4C17F"/>
<path d="M65.3333 34.6667H70.6666C71.4025 34.6667 71.9998 34.0694 71.9998 33.3334V25.3334C71.9998 24.5975 71.4025 24.0002 70.6666 24.0002H65.3333C64.5973 24.0002 64 24.5975 64 25.3334V33.3334C64 34.0694 64.5973 34.6667 65.3333 34.6667ZM66.6667 26.6667H69.3334V32H66.6667V26.6667Z" fill="#D4C17F"/>
<path d="M14.6667 24H9.33328C8.59734 24 8 24.5973 8 25.3333V33.3333C8 34.0692 8.59734 34.6666 9.33328 34.6666H14.6666C15.4025 34.6666 15.9998 34.0692 15.9998 33.3333V25.3333C16 24.5973 15.4027 24 14.6667 24ZM13.3333 32H10.6667V26.6667H13.3334V32H13.3333Z" fill="#D4C17F"/>
<path d="M42.6667 33.3333C42.6667 34.0692 43.2641 34.6666 44 34.6666H49.3333C50.0692 34.6666 50.6666 34.0692 50.6666 33.3333V25.3333C50.6666 24.5973 50.0692 24 49.3333 24H44C43.2641 24 42.6667 24.5973 42.6667 25.3333V33.3333ZM45.3333 26.6667H48V32H45.3333V26.6667Z" fill="#D4C17F"/>
<path d="M78.6667 16H62.6667C61.9308 16 61.3334 16.5973 61.3334 17.3333C61.3334 18.0692 61.9308 18.6666 62.6667 18.6666H77.3334V72.2453C76.9148 72.0959 76.4708 72 76.0002 72C75.7695 72 75.5402 72.02 75.3148 72.06C74.3948 70.4027 72.6442 69.3333 70.6669 69.3333C68.6895 69.3333 66.9389 70.4027 66.0189 72.06C65.7936 72.02 65.5642 72 65.3336 72C63.1283 72 61.3336 73.7947 61.3336 76C61.3336 78.2053 63.1283 80 65.3336 80H76C78.2053 80 80 78.2053 80 76V17.3333C80 16.5973 79.4027 16 78.6667 16ZM76 77.3333H65.3333C64.5986 77.3333 64 76.7347 64 76C64 75.2653 64.5986 74.6667 65.3333 74.6667C65.5892 74.6667 65.8319 74.74 66.0559 74.8841C66.4212 75.1187 66.8773 75.1614 67.28 74.9987C67.6827 74.8361 67.98 74.4867 68.0773 74.0641C68.3587 72.8494 69.4241 72 70.6667 72C71.9094 72 72.9747 72.8494 73.2561 74.0641C73.3534 74.4867 73.6508 74.8361 74.0534 74.9987C74.4548 75.1614 74.912 75.1187 75.2775 74.8841C76.1455 74.3241 77.3334 75.0094 77.3334 76C77.3333 76.7347 76.7347 77.3333 76 77.3333Z" fill="#D4C17F"/>
<path d="M44 18.6667H49.3333C50.0692 18.6667 50.6666 18.0694 50.6666 17.3334V9.33344C50.6666 8.59751 50.0692 8.00016 49.3333 8.00016H44C43.2641 8.00016 42.6667 8.59751 42.6667 9.33344V17.3334C42.6667 18.0694 43.2641 18.6667 44 18.6667ZM45.3333 10.6667H48V16H45.3333V10.6667Z" fill="#D4C17F"/>
<path d="M42.6667 49.3333C42.6667 50.0692 43.2641 50.6666 44 50.6666H49.3333C50.0692 50.6666 50.6666 50.0692 50.6666 49.3333V41.3333C50.6666 40.5973 50.0692 40 49.3333 40H44C43.2641 40 42.6667 40.5973 42.6667 41.3333V49.3333ZM45.3333 42.6667H48V48H45.3333V42.6667Z" fill="#D4C17F"/>
<path d="M30.6667 18.6667H36C36.7359 18.6667 37.3333 18.0694 37.3333 17.3334V9.33344C37.3333 8.59751 36.7359 8.00016 36 8.00016H30.6667C29.9308 8.00016 29.3334 8.59751 29.3334 9.33344V17.3334C29.3333 18.0694 29.9306 18.6667 30.6667 18.6667ZM32 10.6667H34.6667V16H32V10.6667Z" fill="#D4C17F"/>
<path d="M39.0533 64.3867C38.8133 64.64 38.6666 64.9867 38.6666 65.3334C38.6666 65.6802 38.8133 66.0267 39.0533 66.2802C39.3066 66.5202 39.6533 66.6669 40 66.6669C40.3467 66.6669 40.6933 66.5202 40.9467 66.2802C41.1867 66.0269 41.3334 65.6802 41.3334 65.3334C41.3334 64.9867 41.1867 64.6402 40.9467 64.3867C40.44 63.8933 39.56 63.8933 39.0533 64.3867Z" fill="#D4C17F"/>
<path d="M29.3333 49.3333C29.3333 50.0692 29.9306 50.6666 30.6666 50.6666H36C36.7359 50.6666 37.3333 50.0692 37.3333 49.3333V41.3333C37.3333 40.5973 36.7359 40 36 40H30.6667C29.9308 40 29.3334 40.5973 29.3334 41.3333V49.3333H29.3333ZM32 42.6667H34.6667V48H32V42.6667Z" fill="#D4C17F"/>
<path d="M26.6667 57.3333C26.6667 58.0692 27.2641 58.6666 28 58.6666H32V70.6666C32 71.4025 32.5973 71.9998 33.3333 71.9998C34.0692 71.9998 34.6666 71.4025 34.6666 70.6666V58.6666H45.3333V70.6666C45.3333 71.4025 45.9306 71.9998 46.6666 71.9998C47.4025 71.9998 47.9998 71.4025 47.9998 70.6666V58.6666H51.9998C52.7358 58.6666 53.3331 58.0692 53.3331 57.3333C53.3331 56.5973 52.7358 56 51.9998 56H28C27.2641 56 26.6667 56.5973 26.6667 57.3333Z" fill="#D4C17F"/>
<path d="M64 49.3333C64 50.0692 64.5973 50.6666 65.3333 50.6666H70.6666C71.4025 50.6666 71.9998 50.0692 71.9998 49.3333V41.3333C71.9998 40.5973 71.4025 40 70.6666 40H65.3333C64.5973 40 64 40.5973 64 41.3333V49.3333ZM66.6667 42.6667H69.3334V48H66.6667V42.6667Z" fill="#D4C17F"/>
<path d="M57.3333 0H22.6667C21.9308 0 21.3334 0.597344 21.3334 1.33328V70.6666C21.3334 71.4025 21.9308 71.9998 22.6667 71.9998C23.4027 71.9998 24 71.4025 24 70.6666V2.66656H56V70.6666C56 71.4025 56.5973 71.9998 57.3333 71.9998C58.0692 71.9998 58.6666 71.4025 58.6666 70.6666V1.33328C58.6667 0.597344 58.0694 0 57.3333 0Z" fill="#D4C17F"/>
</svg>
